!!!OTL: WIE LANG SOLL ICH MICH QUAELEN
!!!ARE: Europa, Mitteleuropa, Deutschland
!!!SCT: F0949
!!!YEM: Copyright 1995, estate of Helmut Schaffrath.
**kern
*ICvox
*Ivox
*M4/4
*k[f#c#g#]
*A:
{4e
=1
16a
16b
16a
16b
8g#
8f#
4e
4a
=2
4c#
16e
16d
16c#
16d
4.e}
{8a
=3
8f#
8b
8dd
8b
4a
16a
16g#
16f#
16g#
=4
4a
2r}
{4e
=5
16a
16b
16a
16b
8g#
8f#
4e
4a
=6
4c#
16e
16d
16c#
16d
4.e}
{8a
=7
8f#
8b
8dd
8b
4a
16a
16g#
16f#
16g#
=8
4a
2r}
{8a
8b
=9
4.cc#
8b
8a
8g#
8a
8cc#
=10
8b
8ee
8b
8g#
4.e}
{8e
=11
4.cc#
8b
8a
8g#
8a
8cc#
=12
8b
8ee
8b
8g#
4e
8r}
{24e
24f#
24g#
=13
16a
16b
16a
16b
8g#
8f#
4e
4a
=14
4c#
16e
16d
16c#
16d
4.e}
{8a
=15
4f#
8dd
8b
4a
4g#
=16
8a
8b
8cc#
8ff#
4.ee}
{8dd
=17
8cc#
8a
8f#
8b
4a
16a
16g#
16f#
16g#
=18
4a
2r}
==
!!!AGN: Liebes - Lied, Klage
!!!ONB: ESAC (Essen Associative Code) Database: FINK
!!!AMT: simple quadruple
!!!AIN: vox
!!!EED: Helmut Schaffrath
!!!EEV: 1.0
*-
